Newaita-dark/apps/48/gaupol.svg

<svg height="48" viewBox="0 0 48 48" width="48" xmlns="http://www.w3.org/2000/svg" xmlns:xlink="http://www.w3.org/1999/xlink"><linearGradient id="a" gradientUnits="userSpaceOnUse" x1="23.81478" x2="23.81478" y1="42.0509045" y2="44.03547050005"><stop offset="0" stop-opacity=".27451"/><stop offset="1" stop-opacity="0"/></linearGradient><linearGradient id="b"><stop offset="0" stop-opacity=".313726"/><stop offset=".222222" stop-opacity=".27451"/><stop offset="1" stop-opacity="0"/></linearGradient><radialGradient id="c" cx="450.908936" cy="189.579361" gradientTransform="matrix(.00000026 -.117199 -.210958 -.00000015 79.684395 95.392999)" gradientUnits="userSpaceOnUse" r="21.166656" xlink:href="#b"/><radialGradient id="d" cx="450.908936" cy="189.579361" gradientTransform="matrix(-.00000026 .117199 .210958 .00000015 -31.80678 -11.291218)" gradientUnits="userSpaceOnUse" r="21.166656" xlink:href="#b"/><radialGradient id="e" cx="450.908936" cy="189.579361" gradientTransform="matrix(-.00000026 -.117199 .210958 -.00000015 -31.80678 95.392999)" gradientUnits="userSpaceOnUse" r="21.166656" xlink:href="#b"/><radialGradient id="f" cx="450.908936" cy="189.579361" gradientTransform="matrix(.00000026 .117199 -.210958 .00000015 79.684393 -11.291219)" gradientUnits="userSpaceOnUse" r="21.166656" xlink:href="#b"/><linearGradient id="g" gradientUnits="userSpaceOnUse" x1="23.814786" x2="23.814786" y1="42.0509015" y2="4.34415649995"><stop offset="0" stop-color="#424242"/><stop offset="1" stop-color="#616161"/></linearGradient><linearGradient id="h" gradientUnits="userSpaceOnUse" x1="23.814816" x2="23.814816" y1="34.11269559443" y2="12.28244759443"><stop offset="0" stop-color="#e0e0e0"/><stop offset="1" stop-color="#eee"/></linearGradient><path d="m7.691406 42.050781h32.496094v1.984375h-32.496094zm0 0" fill="url(#a)"/><path d="m40.1875 42.050781h3.96875v-1.984375h-3.96875zm0 0" fill="url(#c)"/><path d="m7.691406 42.050781h-3.96875v1.984375h3.96875zm0 0" fill="url(#d)"/><path d="m7.691406 42.050781h-3.96875v-1.984375h3.96875zm0 0" fill="url(#e)"/><path d="m40.1875 42.050781h3.96875v1.984375h-3.96875zm0 0" fill="url(#f)"/><path d="m5.457031 4.34375h36.714844c.820313 0 1.488281.667969 1.488281 1.488281v34.730469c0 .820312-.667968 1.488281-1.488281 1.488281h-36.714844c-.820312 0-1.488281-.667969-1.488281-1.488281v-34.730469c0-.820312.667969-1.488281 1.488281-1.488281zm0 0" fill="url(#g)"/><path d="m5.953125 42.050781c-1.097656 0-1.984375-.886719-1.984375-1.984375v-.25c0 1.101563.886719 1.988282 1.984375 1.988282h35.722656c1.097657 0 1.984375-.886719 1.984375-1.988282v.25c0 1.097656-.886718 1.984375-1.984375 1.984375zm0 0" fill-opacity=".196078"/><path d="m5.953125 4.34375c-1.097656 0-1.984375.886719-1.984375 1.984375v.25c0-1.101563.886719-1.984375 1.984375-1.984375h35.722656c1.097657 0 1.984375.882812 1.984375 1.984375v-.25c0-1.097656-.886718-1.984375-1.984375-1.984375zm0 0" fill="#fff" fill-opacity=".643312"/><path d="m5.457031 4.203125c-.898437 0-1.628906.730469-1.628906 1.628906v34.730469c0 .898438.730469 1.628906 1.628906 1.628906h36.714844c.898437 0 1.628906-.730468 1.628906-1.628906v-34.730469c0-.898437-.730469-1.628906-1.628906-1.628906zm0 .28125h36.714844c.75 0 1.347656.597656 1.347656 1.347656v34.730469c0 .75-.597656 1.347656-1.347656 1.347656h-36.714844c-.75 0-1.347656-.597656-1.347656-1.347656v-34.730469c0-.75.597656-1.347656 1.347656-1.347656zm0 0" fill="#212121"/><path d="m23.816406 12.28125c-6.597656 0-11.910156 3.984375-11.910156 8.933594 0 2.273437 1.125 4.34375 2.976562 5.917968 0 1.832032.003907 3.683594.019532 5.789063-.019532 1.191406.972656 1.191406 1.964844.199219 1.984374-1.984375 2.480468-2.480469 3.472656-2.976563h3.476562c6.59375 0 11.90625-3.984375 11.90625-8.929687 0-4.949219-5.3125-8.933594-11.90625-8.933594zm0 0" fill="url(#h)"/><path d="m23.816406 12.28125c-6.597656 0-11.910156 3.984375-11.910156 8.933594 0 .082031.003906.164062.003906.246094.175782-4.832032 5.417969-8.683594 11.90625-8.683594 6.484375 0 11.726563 3.851562 11.902344 8.683594 0-.082032.003906-.164063.003906-.246094 0-4.949219-5.3125-8.933594-11.90625-8.933594zm0 0" fill="#fff"/><path d="m11.925781 21.726562c-.011719.15625-.019531.316407-.019531.480469 0 2.273438 1.125 4.34375 2.976562 5.917969 0 1.832031.003907 3.683594.019532 5.789062-.019532 1.191407.972656 1.191407 1.964844.199219 1.984374-1.984375 2.480468-2.480469 3.472656-2.976562h3.476562c6.59375 0 11.90625-3.984375 11.90625-8.929688 0-.164062-.007812-.320312-.015625-.480469-.332031 4.722657-5.511719 8.453126-11.890625 8.453126-1.957031 0-1.984375 0-3.476562 0-.992188.496093-1.488282.992187-3.472656 2.976562-.992188.992188-1.984376.992188-1.964844-.199219-.015625-2.105469-.019532-3.957031-.019532-5.789062-1.722656-1.464844-2.8125-3.355469-2.957031-5.441407zm0 0" fill-opacity=".235294"/><path d="m254.017409-84.012509c-70.36828 0-127.029536 42.495942-127.029536 95.282568 0 24.247684 11.998854 46.328909 31.746969 63.118972 0 19.539801.041662 39.287915.208313 61.744104-.208313 12.70712 10.374009 12.70712 20.956332 2.124797 21.164646-21.164645 26.455807-26.455807 37.03813-31.746968h37.079792c70.326618 0 126.987873-42.495942 126.987873-95.240905 0-52.786626-56.661255-95.282568-126.987873-95.282568zm0 0" fill="none" stroke="#212121" stroke-linecap="round" stroke-linejoin="round" stroke-width="3" transform="matrix(.093759 0 0 .093759 0 20.158175)"/></svg>

<?xml version="1.0" encoding="UTF-8"?>
<svg xmlns="http://www.w3.org/2000/svg" xmlns:xlink="http://www.w3.org/1999/xlink" width="48px" height="48px" viewBox="0 0 48 48" version="1.1">
<defs>
<linearGradient id="linear0" gradientUnits="userSpaceOnUse" x1="254" y1="233.5" x2="254" y2="254.666672" gradientTransform="matrix(0.093759,0,0,0.093759,-0.00000572259,20.158178)">
<stop offset="0" style="stop-color:rgb(0%,0%,0%);stop-opacity:0.27451;"/>
<stop offset="1" style="stop-color:rgb(0%,0%,0%);stop-opacity:0;"/>
</linearGradient>
<radialGradient id="radial0" gradientUnits="userSpaceOnUse" cx="450.908936" cy="189.579361" fx="450.908936" fy="189.579361" r="21.166656" gradientTransform="matrix(0.000000261256,-0.117199,-0.210958,-0.000000152308,79.684395,95.392999)">
<stop offset="0" style="stop-color:rgb(0%,0%,0%);stop-opacity:0.313726;"/>
<stop offset="0.222222" style="stop-color:rgb(0%,0%,0%);stop-opacity:0.27451;"/>
<stop offset="1" style="stop-color:rgb(0%,0%,0%);stop-opacity:0;"/>
</radialGradient>
<radialGradient id="radial1" gradientUnits="userSpaceOnUse" cx="450.908936" cy="189.579361" fx="450.908936" fy="189.579361" r="21.166656" gradientTransform="matrix(-0.000000261256,0.117199,0.210958,0.000000152308,-31.80678,-11.291218)">
<stop offset="0" style="stop-color:rgb(0%,0%,0%);stop-opacity:0.313726;"/>
<stop offset="0.222222" style="stop-color:rgb(0%,0%,0%);stop-opacity:0.27451;"/>
<stop offset="1" style="stop-color:rgb(0%,0%,0%);stop-opacity:0;"/>
</radialGradient>
<radialGradient id="radial2" gradientUnits="userSpaceOnUse" cx="450.908936" cy="189.579361" fx="450.908936" fy="189.579361" r="21.166656" gradientTransform="matrix(-0.000000261256,-0.117199,0.210958,-0.000000152308,-31.80678,95.392999)">
<stop offset="0" style="stop-color:rgb(0%,0%,0%);stop-opacity:0.313726;"/>
<stop offset="0.222222" style="stop-color:rgb(0%,0%,0%);stop-opacity:0.27451;"/>
<stop offset="1" style="stop-color:rgb(0%,0%,0%);stop-opacity:0;"/>
</radialGradient>
<radialGradient id="radial3" gradientUnits="userSpaceOnUse" cx="450.908936" cy="189.579361" fx="450.908936" fy="189.579361" r="21.166656" gradientTransform="matrix(0.000000261256,0.117199,-0.210958,0.000000152308,79.684393,-11.291219)">
<stop offset="0" style="stop-color:rgb(0%,0%,0%);stop-opacity:0.313726;"/>
<stop offset="0.222222" style="stop-color:rgb(0%,0%,0%);stop-opacity:0.27451;"/>
<stop offset="1" style="stop-color:rgb(0%,0%,0%);stop-opacity:0;"/>
</radialGradient>
<linearGradient id="linear1" gradientUnits="userSpaceOnUse" x1="254" y1="233.5" x2="254" y2="-168.666672" gradientTransform="matrix(0.093759,0,0,0.093759,0,20.158175)">
<stop offset="0" style="stop-color:rgb(25.882354%,25.882354%,25.882354%);stop-opacity:1;"/>
<stop offset="1" style="stop-color:rgb(38.039216%,38.039216%,38.039216%);stop-opacity:1;"/>
</linearGradient>
<linearGradient id="linear2" gradientUnits="userSpaceOnUse" x1="960" y1="1455.117188" x2="960" y2="575.117188" gradientTransform="matrix(0.0248071,0,0,0.0248071,0,-1.984542)">
<stop offset="0" style="stop-color:rgb(87.843138%,87.843138%,87.843138%);stop-opacity:1;"/>
<stop offset="1" style="stop-color:rgb(93.333334%,93.333334%,93.333334%);stop-opacity:1;"/>
</linearGradient>
</defs>
<g id="surface1">
<path style=" stroke:none;fill-rule:nonzero;fill:url(#linear0);" d="M 7.691406 42.050781 L 40.1875 42.050781 L 40.1875 44.035156 L 7.691406 44.035156 Z M 7.691406 42.050781 "/>
<path style=" stroke:none;fill-rule:nonzero;fill:url(#radial0);" d="M 40.1875 42.050781 L 44.15625 42.050781 L 44.15625 40.066406 L 40.1875 40.066406 Z M 40.1875 42.050781 "/>
<path style=" stroke:none;fill-rule:nonzero;fill:url(#radial1);" d="M 7.691406 42.050781 L 3.722656 42.050781 L 3.722656 44.035156 L 7.691406 44.035156 Z M 7.691406 42.050781 "/>
<path style=" stroke:none;fill-rule:nonzero;fill:url(#radial2);" d="M 7.691406 42.050781 L 3.722656 42.050781 L 3.722656 40.066406 L 7.691406 40.066406 Z M 7.691406 42.050781 "/>
<path style=" stroke:none;fill-rule:nonzero;fill:url(#radial3);" d="M 40.1875 42.050781 L 44.15625 42.050781 L 44.15625 44.035156 L 40.1875 44.035156 Z M 40.1875 42.050781 "/>
<path style=" stroke:none;fill-rule:nonzero;fill:url(#linear1);" d="M 5.457031 4.34375 L 42.171875 4.34375 C 42.992188 4.34375 43.660156 5.011719 43.660156 5.832031 L 43.660156 40.5625 C 43.660156 41.382812 42.992188 42.050781 42.171875 42.050781 L 5.457031 42.050781 C 4.636719 42.050781 3.96875 41.382812 3.96875 40.5625 L 3.96875 5.832031 C 3.96875 5.011719 4.636719 4.34375 5.457031 4.34375 Z M 5.457031 4.34375 "/>
<path style=" stroke:none;fill-rule:nonzero;fill:rgb(0%,0%,0%);fill-opacity:0.196078;" d="M 5.953125 42.050781 C 4.855469 42.050781 3.96875 41.164062 3.96875 40.066406 L 3.96875 39.816406 C 3.96875 40.917969 4.855469 41.804688 5.953125 41.804688 L 41.675781 41.804688 C 42.773438 41.804688 43.660156 40.917969 43.660156 39.816406 L 43.660156 40.066406 C 43.660156 41.164062 42.773438 42.050781 41.675781 42.050781 Z M 5.953125 42.050781 "/>
<path style=" stroke:none;fill-rule:nonzero;fill:rgb(100%,100%,100%);fill-opacity:0.643312;" d="M 5.953125 4.34375 C 4.855469 4.34375 3.96875 5.230469 3.96875 6.328125 L 3.96875 6.578125 C 3.96875 5.476562 4.855469 4.59375 5.953125 4.59375 L 41.675781 4.59375 C 42.773438 4.59375 43.660156 5.476562 43.660156 6.578125 L 43.660156 6.328125 C 43.660156 5.230469 42.773438 4.34375 41.675781 4.34375 Z M 5.953125 4.34375 "/>
<path style=" stroke:none;fill-rule:nonzero;fill:rgb(12.941177%,12.941177%,12.941177%);fill-opacity:1;" d="M 5.457031 4.203125 C 4.558594 4.203125 3.828125 4.933594 3.828125 5.832031 L 3.828125 40.5625 C 3.828125 41.460938 4.558594 42.191406 5.457031 42.191406 L 42.171875 42.191406 C 43.070312 42.191406 43.800781 41.460938 43.800781 40.5625 L 43.800781 5.832031 C 43.800781 4.933594 43.070312 4.203125 42.171875 4.203125 Z M 5.457031 4.484375 L 42.171875 4.484375 C 42.921875 4.484375 43.519531 5.082031 43.519531 5.832031 L 43.519531 40.5625 C 43.519531 41.3125 42.921875 41.910156 42.171875 41.910156 L 5.457031 41.910156 C 4.707031 41.910156 4.109375 41.3125 4.109375 40.5625 L 4.109375 5.832031 C 4.109375 5.082031 4.707031 4.484375 5.457031 4.484375 Z M 5.457031 4.484375 "/>
<path style=" stroke:none;fill-rule:nonzero;fill:url(#linear2);" d="M 23.816406 12.28125 C 17.21875 12.28125 11.90625 16.265625 11.90625 21.214844 C 11.90625 23.488281 13.03125 25.558594 14.882812 27.132812 C 14.882812 28.964844 14.886719 30.816406 14.902344 32.921875 C 14.882812 34.113281 15.875 34.113281 16.867188 33.121094 C 18.851562 31.136719 19.347656 30.640625 20.339844 30.144531 C 21.832031 30.144531 21.859375 30.144531 23.816406 30.144531 C 30.410156 30.144531 35.722656 26.160156 35.722656 21.214844 C 35.722656 16.265625 30.410156 12.28125 23.816406 12.28125 Z M 23.816406 12.28125 "/>
<path style=" stroke:none;fill-rule:nonzero;fill:rgb(100%,100%,100%);fill-opacity:1;" d="M 23.816406 12.28125 C 17.21875 12.28125 11.90625 16.265625 11.90625 21.214844 C 11.90625 21.296875 11.910156 21.378906 11.910156 21.460938 C 12.085938 16.628906 17.328125 12.777344 23.816406 12.777344 C 30.300781 12.777344 35.542969 16.628906 35.71875 21.460938 C 35.71875 21.378906 35.722656 21.296875 35.722656 21.214844 C 35.722656 16.265625 30.410156 12.28125 23.816406 12.28125 Z M 23.816406 12.28125 "/>
<path style=" stroke:none;fill-rule:nonzero;fill:rgb(0%,0%,0%);fill-opacity:0.235294;" d="M 11.925781 21.726562 C 11.914062 21.882812 11.90625 22.042969 11.90625 22.207031 C 11.90625 24.480469 13.03125 26.550781 14.882812 28.125 C 14.882812 29.957031 14.886719 31.808594 14.902344 33.914062 C 14.882812 35.105469 15.875 35.105469 16.867188 34.113281 C 18.851562 32.128906 19.347656 31.632812 20.339844 31.136719 C 21.832031 31.136719 21.859375 31.136719 23.816406 31.136719 C 30.410156 31.136719 35.722656 27.152344 35.722656 22.207031 C 35.722656 22.042969 35.714844 21.886719 35.707031 21.726562 C 35.375 26.449219 30.195312 30.179688 23.816406 30.179688 C 21.859375 30.179688 21.832031 30.179688 20.339844 30.179688 C 19.347656 30.675781 18.851562 31.171875 16.867188 33.15625 C 15.875 34.148438 14.882812 34.148438 14.902344 32.957031 C 14.886719 30.851562 14.882812 29 14.882812 27.167969 C 13.160156 25.703125 12.070312 23.8125 11.925781 21.726562 Z M 11.925781 21.726562 "/>
<path style="fill:none;stroke-width:3;stroke-linecap:round;stroke-linejoin:round;stroke:rgb(12.941177%,12.941177%,12.941177%);stroke-opacity:1;stroke-miterlimit:4;" d="M 254.017409 -84.012509 C 183.649129 -84.012509 126.987873 -41.516567 126.987873 11.270059 C 126.987873 35.517743 138.986727 57.598968 158.734842 74.389031 C 158.734842 93.928832 158.776504 113.676946 158.943155 136.133135 C 158.734842 148.840255 169.317164 148.840255 179.899487 138.257932 C 201.064133 117.093287 206.355294 111.802125 216.937617 106.510964 C 232.852764 106.510964 233.144402 106.510964 254.017409 106.510964 C 324.344027 106.510964 381.005282 64.015022 381.005282 11.270059 C 381.005282 -41.516567 324.344027 -84.012509 254.017409 -84.012509 Z M 254.017409 -84.012509 " transform="matrix(0.093759,0,0,0.093759,0,20.158175)"/>
</g>
</svg>
